<?xml version="1.0" encoding="UTF-8"?>
<map version="1.11" tiledversion="1.12.2" orientation="orthogonal" renderorder="right-down" width="1" height="1" tilewidth="16" tileheight="16" infinite="0" nextlayerid="3" nextobjectid="1">
 <tileset firstgid="1" source="../../Tilesets/b1.tsx"/>
 <tileset firstgid="64" source="../../Tilesets/prototype.tsx"/>
 <tileset firstgid="78" source="../../Tilesets/b2.tsx"/>
 <layer id="2" name="collider" width="1" height="1">
  <properties>
   <property name="physicsMaterial" value="PM_Ground"/>
   <property name="unity:ignore" value="Visual"/>
   <property name="unity:layer" value="Ground"/>
  </properties>
  <data encoding="csv">
64
</data>
 </layer>
 <layer id="1" name="visual" width="1" height="1">
  <properties>
   <property name="unity:SortingLayer" value="Ground"/>
  </properties>
  <data encoding="csv">
120
</data>
 </layer>
</map>
